public/assets/img/icons/commercial.svg

<svg id="eTZJ2AQobOz1" xmlns="http://www.w3.org/2000/svg" xmlns:xlink="http://www.w3.org/1999/xlink" viewBox="0 0 58 60" shape-rendering="geometricPrecision" text-rendering="geometricPrecision" project-id="3e755a863eec45019067f6ac30d2604a" export-id="92b59f650cd74c30b71bdd3263325f9b" cached="false">
<style><![CDATA[
#eTZJ2AQobOz3 {animation: eTZJ2AQobOz3_s_do 3000ms linear infinite normal forwards}@keyframes eTZJ2AQobOz3_s_do { 0% {stroke-dashoffset: 82.58} 33.333333% {stroke-dashoffset: 0} 100% {stroke-dashoffset: 0}} #eTZJ2AQobOz4 {animation: eTZJ2AQobOz4_s_do 3000ms linear infinite normal forwards}@keyframes eTZJ2AQobOz4_s_do { 0% {stroke-dashoffset: 109.89} 33.333333% {stroke-dashoffset: 109.89} 73.333333% {stroke-dashoffset: 0} 100% {stroke-dashoffset: 0}} #eTZJ2AQobOz5 {animation: eTZJ2AQobOz5_s_do 3000ms linear infinite normal forwards}@keyframes eTZJ2AQobOz5_s_do { 0% {stroke-dashoffset: 50.43} 16.666667% {stroke-dashoffset: 50.43} 33.333333% {stroke-dashoffset: 0} 100% {stroke-dashoffset: 0}}
]]></style>
<path d="M2.37891,57.5933h53.24329" fill="none" stroke="#ee3524" stroke-width="1.5" stroke-linecap="round" stroke-linejoin="round"/><path id="eTZJ2AQobOz3" d="M5.11328,57.5932v-32.1848h18.20542v32.1848" fill="none" stroke="#ee3524" stroke-width="1.5" stroke-linecap="round" stroke-linejoin="round" stroke-dashoffset="82.58" stroke-dasharray="82.58"/><path id="eTZJ2AQobOz4" d="M34.5859,57.5932v-45.9152h18.0541v45.9152" fill="none" stroke="#ee3524" stroke-width="1.5" stroke-linecap="round" stroke-linejoin="round" stroke-dashoffset="109.89" stroke-dasharray="109.89"/><path id="eTZJ2AQobOz5" d="M14.3555,19.3159v-16.90916h30.4v3.11252" fill="none" stroke="#ee3524" stroke-width="1.5" stroke-linecap="round" stroke-linejoin="round" stroke-dashoffset="50.43" stroke-dasharray="50.43"/><path d="M34.5859,20.3093h11.5784" fill="none" stroke="#ee3524" stroke-width="1.5" stroke-linecap="round" stroke-linejoin="round"/><path d="M34.5859,28.3003h11.5784" fill="none" stroke="#ee3524" stroke-width="1.5" stroke-linecap="round" stroke-linejoin="round"/><path d="M34.5859,36.2913h11.5784" fill="none" stroke="#ee3524" stroke-width="1.5" stroke-linecap="round" stroke-linejoin="round"/><path d="M40.7578,57.5933v-8.0904h5.6973v8.0904" fill="none" stroke="#ee3524" stroke-width="1.5" stroke-linecap="round" stroke-linejoin="round"/><path d="M11.3711,57.5933v-8.0904h5.6973v8.0904" fill="none" stroke="#ee3524" stroke-width="1.5" stroke-linecap="round" stroke-linejoin="round"/></svg>

<svg width="58" height="60" viewBox="0 0 58 60" fill="none" xmlns="http://www.w3.org/2000/svg">
<path d="M2.37891 57.5933H55.6222" stroke="#EE3524" stroke-width="1.5" stroke-linecap="round" stroke-linejoin="round"/>
<path d="M5.11328 57.5932V25.4084H23.3187V57.5932" stroke="#EE3524" stroke-width="1.5" stroke-linecap="round" stroke-linejoin="round"/>
<path d="M34.5859 57.5932V11.678H52.64V57.5932" stroke="#EE3524" stroke-width="1.5" stroke-linecap="round" stroke-linejoin="round"/>
<path d="M14.3555 19.3159V2.40674H44.7555V5.51926" stroke="#EE3524" stroke-width="1.5" stroke-linecap="round" stroke-linejoin="round"/>
<path d="M34.5859 20.3093H46.1643" stroke="#EE3524" stroke-width="1.5" stroke-linecap="round" stroke-linejoin="round"/>
<path d="M34.5859 28.3003H46.1643" stroke="#EE3524" stroke-width="1.5" stroke-linecap="round" stroke-linejoin="round"/>
<path d="M34.5859 36.2913H46.1643" stroke="#EE3524" stroke-width="1.5" stroke-linecap="round" stroke-linejoin="round"/>
<path d="M40.7578 57.5933V49.5029H46.4551V57.5933" stroke="#EE3524" stroke-width="1.5" stroke-linecap="round" stroke-linejoin="round"/>
<path d="M11.3711 57.5933V49.5029H17.0684V57.5933" stroke="#EE3524" stroke-width="1.5" stroke-linecap="round" stroke-linejoin="round"/>
</svg>
